src/assets/ikoner/check.svg

<?xml version="1.0" encoding="UTF-8"?>
<svg width="24px" height="24px" viewBox="0 0 24 24" version="1.1" xmlns="http://www.w3.org/2000/svg" xmlns:xlink="http://www.w3.org/1999/xlink">
    <g id="-----↳-Avtaleoversikt-veileder" stroke="none" stroke-width="1" fill="none" fill-rule="evenodd">
        <g id="Artboard" transform="translate(-21.000000, -94.000000)">
            <g id="icon/-feedback/-check-circle-2" transform="translate(21.000000, 94.000000)">
                <g id="check-circle-2">
                    <path d="M12,0 C5.383,0 0,5.384 0,12 C0,18.616 5.383,24 12,24 C18.616,24 24,18.616 24,12 C24,5.384 18.616,0 12,0 Z" id="Shape" fill="#1C6937" fill-rule="nonzero"></path>
                    <path d="M9.63993168,14.4414307 L16.0998211,8.60231554 C16.4920344,8.24700834 17.1087604,8.26567481 17.4763929,8.64623502 C17.8442028,9.02697893 17.8231421,9.62435747 17.430152,9.98049024 L10.2805711,16.4435337 C10.0985537,16.6069711 9.8612111,16.6956522 9.61751913,16.6956522 C9.36153632,16.6956522 9.11545171,16.5990262 8.92853154,16.419824 L6.54589388,14.1121315 C6.16586146,13.7440529 6.16586146,13.1465019 6.54589388,12.7784232 C6.92592631,12.4103446 7.54288359,12.4103446 7.92291602,12.7784232 L9.63993168,14.4414307 Z" id="Path-Copy" fill="#FFFFFF" fill-rule="nonzero"></path>
                </g>
            </g>
        </g>
    </g>
</svg>

<svg width="24" height="24" xmlns="http://www.w3.org/2000/svg"><g fill-rule="nonzero" fill="none"><path d="M12 0C5.383 0 0 5.384 0 12s5.383 12 12 12c6.616 0 12-5.384 12-12S18.616 0 12 0z" fill="#1C6937"/><path d="M9.64 14.441l6.46-5.839a.997.997 0 011.376.044.923.923 0 01-.046 1.334l-7.15 6.464a.993.993 0 01-.662.252.992.992 0 01-.69-.276l-2.382-2.308a.923.923 0 010-1.334.997.997 0 011.377 0l1.717 1.663z" fill="#FFF"/></g></svg>
